X:1
M:9/8
K:Bm
L:1/8
C:Paul Spencer
B,2C DCB,FDB, |B,2C DCB, ECA, |B,2C DCB, FDB, |B,2D CB,A, B,3 :|
D2D FDD ADD |D2E FDF ECA, |D2D FDD ADD |E2B B2A B3 |A2G FED DEF |E2D CB,A, A,B,C |B,2C DCB, FDB, |B,2D CB,A, B,3|
